public/Group 174.svg

<svg xmlns="http://www.w3.org/2000/svg" width="1276" height="79" fill="none"><path stroke="#0A69A5" stroke-width="3" d="M534.5 2h252.945l17.469 22.075h17.069L833.055 32H872.5"/><path stroke="#0A69A5" stroke-width="3" d="M779.5 2H484.025l-18.834 22.075h-20.884L430.76 32H382.5"/><g filter="url(#a)"><path fill="#fff" fill-opacity=".22" d="m.5 78.5 1275 .5V25.5h-402v8H833L822 26h-17.5l-18-22.5H485L466.5 25H446l-14.5 9h-48l-10-9H.5z"/><path stroke="#fff" stroke-opacity=".1" d="M133 25.5H1V78l1274 .5V26H874v8h-41.154l-.128-.087-10.872-7.413H804.26l-.15-.188L786.26 4H485.229l-18.35 21.326-.15.174h-20.586l-14.379 8.925-.121.075h-48.335l-.142-.128-9.858-8.872H133Z"/></g><path stroke="#0A69A5" stroke-width="3" d="M369.5 24H420 0M839.5 24h436"/><defs><filter id="a" width="1294.2" height="94.7" x="-9.1" y="-6.1" color-interpolation-filters="sRGB" filterUnits="userSpaceOnUse"><feFlood flood-opacity="0" result="BackgroundImageFix"/><feGaussianBlur in="BackgroundImageFix" stdDeviation="4.8"/><feComposite in2="SourceAlpha" operator="in" result="effect1_backgroundBlur_527_5"/><feBlend in="SourceGraphic" in2="effect1_backgroundBlur_527_5" result="shape"/></filter></defs></svg>

<svg width="1276" height="79" viewBox="0 0 1276 79" fill="none" xmlns="http://www.w3.org/2000/svg">
<path d="M534.5 2H787.445L804.914 24.0745H821.983L833.055 32H872.5" stroke="#0A69A5" stroke-width="3"/>
<path d="M779.5 2H484.025L465.191 24.0745H444.307L430.76 32H382.5" stroke="#0A69A5" stroke-width="3"/>
<g filter="url(#filter0_b_527_5)">
<path d="M0.5 78.5L1275.5 79V25.5H1165H1147.5H1115H993H964H919H873.5V33.5H833L822 26H804.5L786.5 3.5H485L466.5 25H446L431.5 34H383.5L373.5 25H186H165.5H133H0.5V78.5Z" fill="white" fill-opacity="0.22"/>
<path d="M133 25.5H1V78.0002L1275 78.4998V26H1165H1147.5H1115H993H964H919H874V33.5V34H873.5H833H832.846L832.718 33.9131L821.846 26.5H804.5H804.26L804.11 26.3123L786.26 4H485.229L466.879 25.3261L466.729 25.5H466.5H446.143L431.764 34.4248L431.643 34.5H431.5H383.5H383.308L383.166 34.3716L373.308 25.5H186H165.5H133Z" stroke="white" stroke-opacity="0.1"/>
</g>
<path d="M369.5 24.0002H420H0" stroke="#0A69A5" stroke-width="3"/>
<path d="M839.5 24H1275.5" stroke="#0A69A5" stroke-width="3"/>
<defs>
<filter id="filter0_b_527_5" x="-9.1" y="-6.1" width="1294.2" height="94.7" filterUnits="userSpaceOnUse" color-interpolation-filters="sRGB">
<feFlood flood-opacity="0" result="BackgroundImageFix"/>
<feGaussianBlur in="BackgroundImageFix" stdDeviation="4.8"/>
<feComposite in2="SourceAlpha" operator="in" result="effect1_backgroundBlur_527_5"/>
<feBlend mode="normal" in="SourceGraphic" in2="effect1_backgroundBlur_527_5" result="shape"/>
</filter>
</defs>
</svg>
